X: 33817
T: Real Mackay Wedding, The
R: reel
M: 4/4
K: Bminor
EF AB2E FA|BFEF DB,B,D|EF AB2E FA|B d2 d2 c BA|
EF AB2E FA|BFEF DB,B,D|A,3 B, D3 E|1 (3FED A z z2 z2:|2 (3FED AF E4||
D2 AD dDAD|DEED EDB,D|A,B,EF EFAF|A B2 B2 A FE|
D2 AD dDAD|DEED EDB,D|A,B,EF EFAF|1 ABaf edBA:|2 AB2BB4||

